src/com/lilithsthrone/res/UIElements/slaveInspect.svg

<?xml version="1.0" encoding="UTF-8" standalone="no"?>
<!-- Created with Inkscape (http://www.inkscape.org/) -->

<svg
   xmlns:dc="http://purl.org/dc/elements/1.1/"
   xmlns:cc="http://creativecommons.org/ns#"
   xmlns:rdf="http://www.w3.org/1999/02/22-rdf-syntax-ns#"
   xmlns:svg="http://www.w3.org/2000/svg"
   xmlns="http://www.w3.org/2000/svg"
   xmlns:sodipodi="http://sodipodi.sourceforge.net/DTD/sodipodi-0.dtd"
   xmlns:inkscape="http://www.inkscape.org/namespaces/inkscape"
   width="100%"
   height="100%"
   viewBox="0 0 64.000001 64.000001"
   id="svg4311"
   version="1.1"
   inkscape:version="0.91 r13725"
   sodipodi:docname="slaveInspect.svg">
  <defs
     id="defs4313">
    <inkscape:path-effect
       effect="powerstroke"
       id="path-effect4140"
       is_visible="true"
       offset_points="0.44353797,0.81148944"
       sort_points="true"
       interpolator_type="Linear"
       interpolator_beta="0.2"
       start_linecap_type="zerowidth"
       linejoin_type="round"
       miter_limit="4"
       end_linecap_type="zerowidth"
       cusp_linecap_type="round" />
  </defs>
  <sodipodi:namedview
     id="base"
     pagecolor="#ffffff"
     bordercolor="#666666"
     borderopacity="1.0"
     inkscape:pageopacity="0.0"
     inkscape:pageshadow="2"
     inkscape:zoom="11.313708"
     inkscape:cx="109.76095"
     inkscape:cy="19.407718"
     inkscape:document-units="px"
     inkscape:current-layer="layer3"
     showgrid="false"
     units="px"
     inkscape:window-width="2560"
     inkscape:window-height="1388"
     inkscape:window-x="-8"
     inkscape:window-y="-8"
     inkscape:window-maximized="1" />
  <metadata
     id="metadata4316">
    <rdf:RDF>
      <cc:Work
         rdf:about="">
        <dc:format>image/svg+xml</dc:format>
        <dc:type
           rdf:resource="http://purl.org/dc/dcmitype/StillImage" />
        <dc:title />
      </cc:Work>
    </rdf:RDF>
  </metadata>
  <g
     inkscape:groupmode="layer"
     id="layer3"
     inkscape:label="Stage3"
     style="display:inline">
    <ellipse
       ry="20.113085"
       rx="20.563641"
       cy="26.907419"
       cx="39.029087"
       id="ellipse4141"
       style="fill:#d8e4f4;fill-opacity:0.50196081;stroke:none;stroke-width:0.88696098;stroke-miterlimit:4;stroke-dasharray:none;stroke-dashoffset:0" />
    <path
       style="fill:#ff2a2a;fill-rule:evenodd;stroke:#000000;stroke-width:1.05101001px;stroke-linecap:butt;stroke-linejoin:miter;stroke-opacity:1"
       d="M 21.595131,40.929463 4.7759587,53.965137 c -6.1085602,4.73443 -0.1200861,11.566197 4.6298083,6.783499 L 24.446249,44.344787 Z"
       id="path4143"
       inkscape:connector-curvature="0"
       sodipodi:nodetypes="csscc" />
    <path
       style="fill:#ff5555;fill-opacity:1;stroke:#000000;stroke-width:1.03450763;stroke-miterlimit:4;stroke-dasharray:none;stroke-dashoffset:0"
       d="M 39.029297 3.4492188 A 23.984419 23.458914 0 0 0 15.044922 26.908203 A 23.984419 23.458914 0 0 0 39.029297 50.367188 A 23.984419 23.458914 0 0 0 63.013672 26.908203 A 23.984419 23.458914 0 0 0 39.029297 3.4492188 z M 39.029297 6.7949219 A 20.563641 20.113085 0 0 1 59.591797 26.908203 A 20.563641 20.113085 0 0 1 39.029297 47.019531 A 20.563641 20.113085 0 0 1 18.464844 26.908203 A 20.563641 20.113085 0 0 1 39.029297 6.7949219 z "
       id="path4139" />
    <path
       style="fill:#ffffff;fill-rule:evenodd;stroke:none;stroke-width:1px;stroke-linecap:butt;stroke-linejoin:miter;stroke-opacity:1"
       d="m 42.603186,8.3153394 c 6.335462,1.8253786 10.184862,6.7107296 11.93875,11.9883936 0.282471,0.653984 0.533299,1.321544 0.752331,1.997775 1.937352,5.981314 1.38023,12.631062 -1.730925,16.419424 3.519403,-3.515034 4.715221,-10.30773 3.134584,-16.814878 C 56.519527,21.171622 56.305666,20.440537 56.05559,19.718088 53.622792,14.184149 49.108559,9.6251998 42.603186,8.3153394 Z"
       id="path4138"
       inkscape:path-effect="#path-effect4140"
       inkscape:original-d="M 42.603186,8.3153394 C 57.074945,11.850816 60.192469,31.413843 53.563342,38.720932"
       inkscape:connector-curvature="0"
       sodipodi:nodetypes="cc" />
  </g>
</svg>

<svg xmlns="http://www.w3.org/2000/svg" viewBox="0 0 64 64">
    <ellipse cx="39.029" cy="26.907" fill="#d8e4f4" fill-opacity=".502" rx="20.564" ry="20.113"/>
    <path fill="#ff2a2a" fill-rule="evenodd" stroke="#000" stroke-width="1.051" d="M21.595 40.93L4.776 53.964c-6.109 4.735-.12 11.566 4.63 6.784l15.04-16.404z"/>
    <path fill="#f55" stroke="#000" stroke-width="1.035" d="M39.03 3.45a23.984 23.459 0 0 0-23.985 23.458 23.984 23.459 0 0 0 23.984 23.46 23.984 23.459 0 0 0 23.985-23.46A23.984 23.459 0 0 0 39.029 3.45zm0 3.345a20.564 20.113 0 0 1 20.562 20.113A20.564 20.113 0 0 1 39.029 47.02a20.564 20.113 0 0 1-20.564-20.112A20.564 20.113 0 0 1 39.029 6.795z"/>
    <path fill="#fff" fill-rule="evenodd" d="M42.603 8.315c6.336 1.826 10.185 6.711 11.939 11.989.282.654.533 1.321.752 1.998 1.938 5.98 1.38 12.63-1.73 16.419 3.519-3.515 4.715-10.308 3.134-16.815a24.036 24.036 0 0 0-.642-2.188c-2.433-5.534-6.947-10.093-13.453-11.403z"/>
</svg>
